X: 18661
T: I'll Buy Boots For Maggie
R: polka
M: 2/4
K: Adorian
|:A>B cd|eg ga|eg/e/ dB|AB G2|
A>B cd|eg ga|eg/e/ dB|BA A2:|
|:ea ab|c'b a2|eg ab|c'b a2|
ea ab|c'b ae|eg/e/ dB|BA A2:|

